build/img/06.svg

<svg width="131" height="84" viewBox="0 0 131 84" fill="none" xmlns="http://www.w3.org/2000/svg">
<path d="M87.9698 78.9179L87.9731 78.9198C92.1292 81.3624 96.8042 82.5752 101.972 82.5752C106.897 82.5752 111.441 81.4146 115.587 79.0872L115.593 79.0839C119.722 76.7293 123.046 73.5707 125.55 69.6151L125.552 69.6116C128.072 65.5946 129.327 61.1038 129.327 56.1652C129.327 51.2573 128.262 46.8523 126.105 42.977C123.989 39.1107 121.027 36.0573 117.233 33.8312C113.454 31.5936 109.091 30.4902 104.177 30.4902C100.999 30.4902 97.9125 31.1118 94.9244 32.3504C93.6197 32.8821 92.3822 33.5206 91.2123 34.2652V29.7052C91.2123 27.5597 91.7143 25.5523 92.7208 23.6684C93.7587 21.7561 95.1965 20.2215 97.0463 19.0532L97.0502 19.0508C98.8988 17.8715 101.087 17.2652 103.652 17.2652C105.265 17.2652 106.829 17.5869 108.353 18.2354C109.881 18.8854 111.226 19.7932 112.395 20.9623L113.102 21.6694L113.809 20.9623L123.994 10.7773L124.725 10.0467L123.971 9.34037C121.108 6.65877 117.938 4.74112 114.463 3.60703C111.032 2.48772 107.427 1.93019 103.652 1.93019C97.8435 1.93019 92.7356 3.13212 88.3626 5.57303C83.9895 7.9789 80.5985 11.4463 78.2003 15.9516C75.7976 20.43 74.6173 25.7266 74.6173 31.8052V53.7502C74.6173 59.3888 75.8037 64.4066 78.2061 68.7746L78.2078 68.7777C80.6007 73.0921 83.8566 76.479 87.9698 78.9179ZM15.6129 5.46956L16.1004 6.34269L15.6129 5.46957C11.2511 7.9049 7.84509 11.3109 5.40976 15.6727C2.9688 20.0446 1.76538 25.1178 1.76538 30.8602V53.5402C1.76538 59.2826 2.9688 64.3558 5.40976 68.7277C7.84509 73.0895 11.2511 76.4955 15.6129 78.9308C19.9847 81.3718 25.0579 82.5752 30.8004 82.5752C36.5428 82.5752 41.616 81.3718 45.9879 78.9308C50.3497 76.4955 53.7557 73.0895 56.191 68.7277C58.632 64.3558 59.8354 59.2826 59.8354 53.5402V30.8602C59.8354 25.1178 58.632 20.0446 56.191 15.6727C53.7557 11.3109 50.3497 7.9049 45.9879 5.46957C41.616 3.02862 36.5428 1.8252 30.8004 1.8252C25.0579 1.8252 19.9847 3.02862 15.6129 5.46956ZM107.405 65.484L107.398 65.4883C105.774 66.4435 103.973 66.9252 101.972 66.9252C99.9781 66.9252 98.1814 66.4292 96.5592 65.4432C94.9141 64.4432 93.6148 63.1271 92.6493 61.4857C91.691 59.8566 91.2123 58.0895 91.2123 56.1652C91.2123 54.1659 91.6934 52.3659 92.6474 50.7429C93.6483 49.0646 94.9633 47.752 96.5994 46.7896L96.6044 46.7866C98.2657 45.7963 100.083 45.3002 102.077 45.3002C104.072 45.3002 105.868 45.7962 107.49 46.7822L107.497 46.786L107.503 46.7896C109.137 47.7506 110.431 49.0599 111.396 50.7324L111.4 50.7397C112.356 52.3636 112.837 54.1646 112.837 56.1652C112.837 58.1595 112.341 59.9561 111.355 61.5783L111.352 61.5844L111.348 61.5907C110.387 63.2244 109.078 64.5191 107.405 65.484ZM37.1197 65.3825C35.2539 66.4762 33.1557 67.0302 30.8004 67.0302C28.4451 67.0302 26.3468 66.4762 24.4811 65.3825C22.5987 64.279 21.1116 62.7919 20.0081 60.9095C18.9144 59.0437 18.3604 56.9455 18.3604 54.5902V29.7052C18.3604 27.3499 18.9144 25.2516 20.0081 23.3859C21.1116 21.5035 22.5987 20.0164 24.4811 18.9129C26.3468 17.8192 28.4451 17.2652 30.8004 17.2652C33.1557 17.2652 35.2539 17.8192 37.1197 18.9129C39.0021 20.0164 40.4892 21.5035 41.5927 23.3859C42.6864 25.2516 43.2404 27.3499 43.2404 29.7052V54.5902C43.2404 56.9455 42.6864 59.0437 41.5927 60.9095C40.4892 62.7919 39.0021 64.279 37.1197 65.3825Z" stroke="#FFCC24" stroke-width="2"/>
</svg>

<?xml version="1.0" encoding="utf-8"?>
<!-- Generator: Adobe Illustrator 26.3.1, SVG Export Plug-In . SVG Version: 6.00 Build 0)  -->
<svg version="1.1" id="Слой_1" xmlns="http://www.w3.org/2000/svg" xmlns:xlink="http://www.w3.org/1999/xlink" x="0px" y="0px"
	 viewBox="0 0 131 84" style="enable-background:new 0 0 131 84;" xml:space="preserve">
<style type="text/css">
	.st0{fill:#FFFFFF;stroke:#FFCC24;stroke-width:2;}
</style>
<path class="st0" d="M88,78.9L88,78.9c4.2,2.4,8.8,3.7,14,3.7c4.9,0,9.5-1.2,13.6-3.5l0,0c4.1-2.4,7.5-5.5,10-9.5l0,0
	c2.5-4,3.8-8.5,3.8-13.4c0-4.9-1.1-9.3-3.2-13.2c-2.1-3.9-5.1-6.9-8.9-9.1c-3.8-2.2-8.1-3.3-13.1-3.3c-3.2,0-6.3,0.6-9.3,1.9
	c-1.3,0.5-2.5,1.2-3.7,1.9v-4.6c0-2.1,0.5-4.2,1.5-6c1-1.9,2.5-3.4,4.3-4.6l0,0c1.8-1.2,4-1.8,6.6-1.8c1.6,0,3.2,0.3,4.7,1
	c1.5,0.7,2.9,1.6,4,2.7l0.7,0.7l0.7-0.7L124,10.8l0.7-0.7L124,9.3c-2.9-2.7-6-4.6-9.5-5.7c-3.4-1.1-7-1.7-10.8-1.7
	c-5.8,0-10.9,1.2-15.3,3.6C84,8,80.6,11.4,78.2,16c-2.4,4.5-3.6,9.8-3.6,15.9v21.9c0,5.6,1.2,10.7,3.6,15l0,0
	C80.6,73.1,83.9,76.5,88,78.9z M15.6,5.5l0.5,0.9L15.6,5.5c-4.4,2.4-7.8,5.8-10.2,10.2C3,20,1.8,25.1,1.8,30.9v22.7
	c0,5.7,1.2,10.8,3.6,15.2c2.4,4.4,5.8,7.8,10.2,10.2c4.4,2.4,9.4,3.6,15.2,3.6c5.7,0,10.8-1.2,15.2-3.6c4.4-2.4,7.8-5.8,10.2-10.2
	c2.4-4.4,3.6-9.4,3.6-15.2V30.9c0-5.7-1.2-10.8-3.6-15.2C53.8,11.3,50.3,7.9,46,5.5C41.6,3,36.5,1.8,30.8,1.8
	C25.1,1.8,20,3,15.6,5.5z M107.4,65.5L107.4,65.5c-1.6,1-3.4,1.4-5.4,1.4c-2,0-3.8-0.5-5.4-1.5c-1.6-1-2.9-2.3-3.9-4
	c-1-1.6-1.4-3.4-1.4-5.3c0-2,0.5-3.8,1.4-5.4c1-1.7,2.3-3,4-4l0,0c1.7-1,3.5-1.5,5.5-1.5c2,0,3.8,0.5,5.4,1.5l0,0l0,0
	c1.6,1,2.9,2.3,3.9,3.9l0,0c1,1.6,1.4,3.4,1.4,5.4c0,2-0.5,3.8-1.5,5.4l0,0l0,0C110.4,63.2,109.1,64.5,107.4,65.5z M37.1,65.4
	c-1.9,1.1-4,1.6-6.3,1.6s-4.5-0.6-6.3-1.6c-1.9-1.1-3.4-2.6-4.5-4.5c-1.1-1.9-1.6-4-1.6-6.3V29.7c0-2.4,0.6-4.5,1.6-6.3
	c1.1-1.9,2.6-3.4,4.5-4.5c1.9-1.1,4-1.6,6.3-1.6s4.5,0.6,6.3,1.6c1.9,1.1,3.4,2.6,4.5,4.5c1.1,1.9,1.6,4,1.6,6.3v24.9
	c0,2.4-0.6,4.5-1.6,6.3C40.5,62.8,39,64.3,37.1,65.4z"/>
</svg>
